symbolic/64x64/apps/elisa.svg

<svg xmlns="http://www.w3.org/2000/svg" width="64" height="64" version="1.1">
 <path style="opacity:0.2" d="m 3,50.1074 v 1 C 3,53.8163 5.0181735,56 7.5253906,56 H 56.474609 C 58.981826,56 61,53.8163 61,51.1074 v -1 C 61,52.8163 58.981826,55 56.474609,55 H 7.5253906 C 5.0181735,55 3,52.8163 3,50.1074 Z"/>
 <path style="fill:#3f3f3f" d="m 7.5258554,7.9999 c -2.507217,0 -4.5258558,2.1833 -4.5258558,4.8922 v 37.2156 c 0,2.7089 2.0186387,4.8922 4.5258558,4.8922 H 56.474144 C 58.981361,54.9999 61,52.8166 61,50.1077 V 12.8921 C 61,10.1832 58.981361,7.9999 56.474144,7.9999 Z M 19.571428,25.2793 A 6.2142858,6.220599 0 0 1 25.785714,31.5 6.2142858,6.220599 0 0 1 19.571428,37.7205 6.2142858,6.220599 0 0 1 13.357143,31.5 6.2142858,6.220599 0 0 1 19.571428,25.2793 Z m 24.857144,0 A 6.2142858,6.220599 0 0 1 50.642857,31.5 6.2142858,6.220599 0 0 1 44.428572,37.7205 6.2142858,6.220599 0 0 1 38.214286,31.5 6.2142858,6.220599 0 0 1 44.428572,25.2793 Z"/>
 <path style="fill:#4f4f4f" d="M 8.9999998,55 14.411763,45 H 49.588235 L 55,55 Z"/>
 <path style="fill:#1eb5c5" d="M 11.306641 14 C 10.027873 14 9 15.207784 9 16.708984 L 9 25 L 9 39.451172 C 9 40.864072 10.027873 42 11.306641 42 L 52.693359 42 C 53.972123 42 55 40.864072 55 39.451172 L 55 25 L 55 16.708984 C 55 15.207784 53.972123 14 52.693359 14 L 11.306641 14 z M 20 26.5 A 4.5 4.5 0 0 1 24.5 31 A 4.5 4.5 0 0 1 20 35.5 A 4.5 4.5 0 0 1 15.5 31 A 4.5 4.5 0 0 1 20 26.5 z M 44 26.5 A 4.5 4.5 0 0 1 48.5 31 A 4.5 4.5 0 0 1 44 35.5 A 4.5 4.5 0 0 1 39.5 31 A 4.5 4.5 0 0 1 44 26.5 z"/>
 <circle style="opacity:0.4" cx="19.5" cy="49.5" r="2.5"/>
 <path style="fill:#3f3f3f" d="m 20,25 a 6,6 0 0 0 -6,6 6,6 0 0 0 6,6 h 24 a 6,6 0 0 0 6,-6 6,6 0 0 0 -6,-6 z m 0,2 a 4,4 0 0 1 4,4 4,4 0 0 1 -4,4 4,4 0 0 1 -4,-4 4,4 0 0 1 4,-4 z m 24,0 a 4,4 0 0 1 4,4 4,4 0 0 1 -4,4 4,4 0 0 1 -4,-4 4,4 0 0 1 4,-4 z"/>
 <g transform="matrix(1.0137931,0,0,1.0862069,-0.44136325,-1153.0127)">
  <rect style="fill:#cccccc" width="13.81" height="5.524" x="25.09" y="1087.28"/>
  <path style="fill:#874f29" d="m 25.095235,1087.2815 v 5.5238 h 5.435294 c 0.316646,-0.8865 0.479913,-1.8205 0.482789,-2.7618 -0.0029,-0.9414 -0.16612,-1.8754 -0.482789,-2.762 z"/>
 </g>
 <circle style="opacity:0.4" cx="44.5" cy="49.5" r="2.5"/>
 <path style="opacity:0.1;fill:#ffffff" d="M 7.5253906,8 C 5.0181736,8 3,10.183678 3,12.892578 v 1 C 3,11.183678 5.0181736,9 7.5253906,9 H 56.474609 C 58.981826,9 61,11.183678 61,13.892578 v -1 C 61,10.183678 58.981826,8 56.474609,8 Z"/>
 <path style="opacity:0.2" d="m 9,39.451172 v 1 C 9,41.864072 10.027873,43 11.306641,43 H 52.693359 C 53.972123,43 55,41.864072 55,40.451172 v -1 C 55,40.864072 53.972123,42 52.693359,42 H 11.306641 C 10.027873,42 9,40.864072 9,39.451172 Z"/>
 <rect style="opacity:0.2" width="14" height="1" x="25" y="28"/>
 <path style="opacity:0.2" d="m 20,27 a 4,4 0 0 0 -4,4 4,4 0 0 0 0.03516,0.505859 A 4,4 0 0 1 20,28 4,4 0 0 1 23.964844,31.494141 4,4 0 0 0 24,31 4,4 0 0 0 20,27 Z m 24,0 a 4,4 0 0 0 -4,4 4,4 0 0 0 0.03516,0.505859 A 4,4 0 0 1 44,28 4,4 0 0 1 47.964844,31.494141 4,4 0 0 0 48,31 4,4 0 0 0 44,27 Z"/>
 <path style="opacity:0.1;fill:#ffffff" d="M 14.412109,45 9,55 h 0.5410156 l 4.8710934,-9 h 35.175782 l 4.871093,9 H 55 L 49.587891,45 Z"/>
 <path style="opacity:0.2;fill:#ffffff" d="M 11.306641,14 C 10.027873,14 9,15.207784 9,16.708984 v 1 C 9,16.207784 10.027873,15 11.306641,15 H 52.693359 C 53.972123,15 55,16.207784 55,17.708984 v -1 C 55,15.207784 53.972123,14 52.693359,14 Z"/>
</svg>

<svg xmlns="http://www.w3.org/2000/svg" width="64" height="64"><path style="opacity:.2" d="M3 50.107v1C3 53.817 5.018 56 7.525 56h48.95C58.982 56 61 53.816 61 51.107v-1C61 52.817 58.982 55 56.475 55H7.525C5.018 55 3 52.816 3 50.107z"/><path style="fill:#3f3f3f" d="M7.526 8C5.019 8 3 10.183 3 12.892v37.216C3 52.817 5.019 55 7.526 55h48.948C58.981 55 61 52.817 61 50.108V12.892C61 10.183 58.981 8 56.474 8zM19.57 25.28a6.214 6.22 0 0 1 6.215 6.22 6.214 6.22 0 0 1-6.215 6.22 6.214 6.22 0 0 1-6.214-6.22 6.214 6.22 0 0 1 6.214-6.22zm24.858 0a6.214 6.22 0 0 1 6.214 6.22 6.214 6.22 0 0 1-6.214 6.22 6.214 6.22 0 0 1-6.215-6.22 6.214 6.22 0 0 1 6.215-6.22z"/><path style="fill:#4f4f4f" d="m9 55 5.412-10h35.176L55 55z"/><path style="fill:#1eb5c5" d="M11.307 14C10.027 14 9 15.208 9 16.709v22.742C9 40.864 10.028 42 11.307 42h41.386C53.973 42 55 40.864 55 39.451V16.71C55 15.208 53.972 14 52.693 14H11.307zM20 26.5a4.5 4.5 0 0 1 4.5 4.5 4.5 4.5 0 0 1-4.5 4.5 4.5 4.5 0 0 1-4.5-4.5 4.5 4.5 0 0 1 4.5-4.5zm24 0a4.5 4.5 0 0 1 4.5 4.5 4.5 4.5 0 0 1-4.5 4.5 4.5 4.5 0 0 1-4.5-4.5 4.5 4.5 0 0 1 4.5-4.5z"/><circle style="opacity:.4" cx="19.5" cy="49.5" r="2.5"/><path style="fill:#3f3f3f" d="M20 25a6 6 0 0 0-6 6 6 6 0 0 0 6 6h24a6 6 0 0 0 6-6 6 6 0 0 0-6-6zm0 2a4 4 0 0 1 4 4 4 4 0 0 1-4 4 4 4 0 0 1-4-4 4 4 0 0 1 4-4zm24 0a4 4 0 0 1 4 4 4 4 0 0 1-4 4 4 4 0 0 1-4-4 4 4 0 0 1 4-4z"/><path style="fill:#ccc" d="M25.09 1087.28H38.9v5.524H25.09z" transform="matrix(1.0138 0 0 1.0862 -.441 -1153.013)"/><path style="fill:#874f29" d="M25.095 1087.282v5.523h5.436c.316-.886.48-1.82.482-2.762a8.287 8.287 0 0 0-.482-2.761z" transform="matrix(1.0138 0 0 1.0862 -.441 -1153.013)"/><circle style="opacity:.4" cx="44.5" cy="49.5" r="2.5"/><path style="opacity:.1;fill:#fff" d="M7.525 8C5.018 8 3 10.184 3 12.893v1C3 11.183 5.018 9 7.525 9h48.95C58.982 9 61 11.184 61 13.893v-1C61 10.183 58.982 8 56.475 8z"/><path style="opacity:.2" d="M9 39.451v1C9 41.864 10.028 43 11.307 43h41.386C53.973 43 55 41.864 55 40.451v-1C55 40.864 53.972 42 52.693 42H11.307C10.027 42 9 40.864 9 39.451zM25 28h14v1H25zM20 27a4 4 0 0 0-4 4 4 4 0 0 0 .035.506A4 4 0 0 1 20 28a4 4 0 0 1 3.965 3.494A4 4 0 0 0 24 31a4 4 0 0 0-4-4zm24 0a4 4 0 0 0-4 4 4 4 0 0 0 .035.506A4 4 0 0 1 44 28a4 4 0 0 1 3.965 3.494A4 4 0 0 0 48 31a4 4 0 0 0-4-4z"/><path style="opacity:.1;fill:#fff" d="M14.412 45 9 55h.541l4.871-9h35.176l4.871 9H55l-5.412-10z"/><path style="opacity:.2;fill:#fff" d="M11.307 14C10.027 14 9 15.208 9 16.709v1C9 16.208 10.028 15 11.307 15h41.386C53.973 15 55 16.208 55 17.709v-1C55 15.208 53.972 14 52.693 14z"/></svg>
